X:299
T: RUHIG IST DES TODES SCHLUMMER
N: B0775A
O: Europa, Mitteleuropa, Deutschland
R: Trost - Lied, Tod, religioes
M: 3/4
L: 1/16
K: Eb
 | B,4C4B,4 | B,4A,4G,4 | F,4A,4G,2F,2 | D4E,4z4 |
F,8F,4 | F,4E4D4 | C4E2C2B,2=A,2 | B,8z4 |
B,4C4B,4 | B,4A,4G,4 | F,4A,4G,2F,2 | D4E,4z4 |
F,8F,4 | F,4E4D4 | C4E2C2B,2=A,2 | B,8z4 |
D6F2EDCB, | E8B,4 | F8A,4 | A,4G,4z4 |
B,4C4D4 | E8E4 | E4G2E2F2D2 | E8z4

@@@ Tune index: 2517
